X:294
T:The Gradely Lass
L:1/8
M:6/8
S:Colin Hume's website,  colinhume.com  - chords can also be printed below the stave.
Q:3/8=116
N:Also for the dance "Rebecca's Progress" by Bob Lilley.
K:G
P:A
|: d/c/ | "G"BAB G2F | "C"E2F G2A | "G"BAB G2B | "D7"AFD D2d/c/ |\
"G"BAB G2F | "C"E2F G2A | "G"BGB dcB | "D7"AFD "G"G2 :|
P:B
|: A | "G"BGB d2c | "G/F#"BGB d2c | "Em"BGB dcB | "D7"ecA A2c |\
"G"BGB d2c | "Em"BGB d2e/f/ | "C"gfe "G/B"dcB | "D7"AFD "G"G2 :|

